public/flag for google rating.svg

<svg width="527" height="197" viewBox="0 0 527 197" fill="none" xmlns="http://www.w3.org/2000/svg">
<path d="M0 59.9736L1.25567 60.6546C1.43701 61.2364 1.4969 61.9069 1.96401 62.0514C3.91643 62.6552 7.0383 62.2641 9.15316 62.3333L298.868 63.237L387.684 63.0117L415.279 62.7427C418.641 62.7332 424.566 62.567 427.69 62.8574C439.095 63.0387 449.921 63.3949 461.385 63.1063C468.516 62.9029 475.648 62.7502 482.779 62.6483C487.675 62.5411 494.068 62.2862 498.931 62.673C504.627 62.5663 511.941 62.6823 517.596 63.0685C507.658 67.1958 497.699 71.3724 487.976 75.9736C487.565 76.1683 487.138 76.3794 486.716 76.5484C483.785 78.4286 479.471 80.1731 476.281 81.8324C469.17 85.5299 462.391 89.6376 455.665 93.9898C453.841 95.1651 449.782 97.6737 448.379 99.0249C455.537 104.662 472.825 113.287 481.442 117.069C487.824 119.86 493.683 122.747 500.279 125.438C504.709 127.245 513.907 130.673 517.689 132.721C514.73 132.929 511.607 133.016 508.635 133.039C498.964 133.114 489.162 133.758 479.504 133.671C476.342 133.936 469.756 133.77 466.381 133.791L435.663 133.806L335.841 133.825C317.922 134.042 300 134.087 282.081 133.957C258.507 133.749 235.089 133.135 211.476 133.185C141.588 133.865 71.6928 133.513 1.81484 132.129C1.59451 132.586 1.36046 133.023 1.22106 133.509L0 134.106V59.9736Z" fill="#FCF8F2"/>
<path d="M9.15316 62.334L298.868 63.2377L387.684 63.0124L415.279 62.7434C418.641 62.7339 424.566 62.5678 427.69 62.8581C439.095 63.0394 449.921 63.3956 461.385 63.1071C468.516 62.9036 475.648 62.7509 482.779 62.649C487.675 62.5418 494.069 62.2869 498.931 62.6737C504.627 62.567 511.941 62.683 517.596 63.0693C507.658 67.1965 497.699 71.3731 487.976 75.9743C487.565 76.169 487.138 76.3801 486.716 76.5491C483.785 78.4293 479.471 80.1738 476.281 81.8331C469.17 85.5306 462.391 89.6383 455.665 93.9905C453.841 95.1659 449.782 97.6744 448.38 99.0256C455.537 104.662 472.826 113.287 481.442 117.07C487.825 119.861 493.683 122.748 500.279 125.439C504.709 127.246 513.907 130.674 517.689 132.722C514.73 132.93 511.607 133.017 508.635 133.04C498.964 133.115 489.162 133.759 479.504 133.672C476.342 133.936 469.756 133.77 466.381 133.792L435.663 133.807L335.841 133.825C317.922 134.043 300 134.087 282.081 133.958C258.507 133.749 235.089 133.136 211.476 133.186C141.588 133.866 71.6928 133.514 1.81485 132.13C1.40594 131.629 1.63219 130.851 1.84986 130.336L2.55709 130.135C3.22815 130.152 4.13555 130.2 4.78344 130.162C4.14955 129.609 3.83251 129.788 3.14099 128.953C2.95141 128.218 3.28447 127.312 3.48514 126.553C4.44688 126.373 13.3858 126.666 14.733 126.7L39.9879 127.246C63.2746 127.63 86.5632 127.891 109.853 128.027L344.346 128.552L416.442 128.712C440.25 128.815 464.264 129.398 488.041 128.368C489.363 128.31 490.685 128.251 492.01 128.205C482.031 123.038 470.7 118.769 460.646 113.384C452.329 108.93 445.421 104.437 437.698 99.1635C448.956 91.4998 458.125 85.3393 470.294 78.6657C478.028 74.4251 485.329 71.5696 492.852 67.7062C487.925 67.8757 482.26 67.5334 477.202 67.5149L446.208 67.5442L373.243 67.7091L140.406 67.9153L44.5606 67.8022L18.9094 67.8508C13.5859 67.8461 8.40465 67.6139 3.08349 68.0128C2.46383 70.3215 2.38753 72.4522 1.53848 74.8751C1.46339 72.624 1.62665 70.3171 1.78535 68.0719C2.79563 67.7973 3.90167 67.5877 4.93189 67.3714C4.72818 67.2994 4.29591 67.1944 4.21137 67.0489C1.40338 62.2129 9.76128 65.8422 11.6865 64.4053C10.7611 64.4089 10.5303 64.5653 9.85117 64.1276C7.60016 64.126 3.90033 64.0285 1.70503 63.605L1.63579 62.9885C2.62444 62.074 7.06632 62.8419 9.07518 62.3535L9.15316 62.334Z" fill="#E5D0B0"/>
<path d="M2.55709 130.135C3.22815 130.151 4.13555 130.2 4.78344 130.162C12.5636 130.567 21.0015 130.35 28.8168 130.466L69.5922 131.103L213.376 131.208L447.07 132.088L475.82 131.977C477.449 131.967 487.189 131.494 487.845 132.09L487.688 132.768C485.787 133.662 480.932 132.768 479.504 133.671C476.342 133.936 469.756 133.77 466.381 133.791L435.663 133.806L335.841 133.825C317.922 134.043 300 134.087 282.081 133.958C258.507 133.749 235.089 133.136 211.476 133.185C141.588 133.865 71.6928 133.513 1.81485 132.129C1.40594 131.628 1.63219 130.85 1.84986 130.336L2.55709 130.135Z" fill="#FCF8F2"/>
<path d="M9.15316 62.334L298.868 63.2377L387.684 63.0124L415.279 62.7434C418.641 62.7339 424.566 62.5678 427.69 62.8581C429.2 63.2261 429.84 63.274 431.402 63.3632L431.219 63.3097L431.618 63.5039C430.064 63.5697 427.939 63.3959 426.673 63.8477L253.479 64.5738L198.769 64.5794L181.749 64.5084C179.213 64.494 175.174 64.3338 172.754 64.5218L171.036 64.5046C165.563 63.9421 158.643 64.4197 153.084 64.4658C129.754 64.6592 106.184 63.8791 82.87 64.2834C74.5702 64.2487 65.7241 64.1173 57.4633 64.3438C55.9215 64.1739 51.8646 64.2724 50.1612 64.2739L36.0385 64.287L19.8879 64.2063C16.4882 64.163 13.2545 63.9784 9.85117 64.1276C7.60016 64.126 3.90033 64.0285 1.70503 63.605L1.63579 62.9885C2.62444 62.074 7.06633 62.8419 9.07519 62.3535L9.15316 62.334Z" fill="#FCF8F2"/>
<path d="M443.965 99.031C447.026 96.4281 451.431 93.9826 454.878 91.8094C463.569 86.3464 472.401 81.1729 481.665 76.7348C483.042 76.0761 488.11 73.1286 489.16 73.7363C489.191 75.1395 487.351 75.1338 486.716 76.5491C483.785 78.4293 479.471 80.1738 476.281 81.8331C469.17 85.5306 462.391 89.6383 455.665 93.9905C453.841 95.1658 449.782 97.6744 448.379 99.0256C455.537 104.662 472.826 113.287 481.442 117.07C481.354 117.477 481.292 117.493 480.963 117.783C476.746 118.697 449.038 102.274 443.965 99.031Z" fill="#FCF8F2"/>
<path d="M427.69 62.8579C439.095 63.0392 449.921 63.3954 461.385 63.1068C468.516 62.9034 475.648 62.7506 482.779 62.6488C487.675 62.5415 494.069 62.2867 498.931 62.6735C495.219 62.8131 488.779 62.9047 485.362 63.3442L485.977 63.4157C481.022 63.8434 477.027 63.3594 472.254 63.4427L438.292 63.9046C435.323 63.9223 429.233 64.6584 426.673 63.8475C427.939 63.3956 430.064 63.5695 431.618 63.5036L431.219 63.3095L431.402 63.363C429.84 63.2737 429.2 63.2259 427.69 62.8579Z" fill="#E7D8CF"/>
<path d="M57.4633 64.3438C65.7241 64.1172 74.5702 64.2486 82.87 64.2833C80.6503 65.1817 59.9296 65.0922 57.4633 64.3438Z" fill="#E7D8CF"/>
<path d="M171.036 64.5039L172.754 64.5211L173.309 65.4658C172.91 66.7995 171.228 66.9551 170.165 66.1213C170.116 65.2446 170.302 65.3426 171.036 64.5039Z" fill="#DDC9B4"/>
<path d="M490.413 63.9149C492.934 63.8136 503.552 63.8355 505.569 64.6237L505.535 65.0514L504.588 65.835L504.758 64.9575C504.375 64.7929 491.959 64.3722 490.209 64.1569L490.413 63.9149Z" fill="#DDC9B4"/>
<path d="M102.406 64.5947L103.786 64.6428L103.963 64.8668C103.769 65.976 103.894 66.1985 104.353 67.2506L104.28 67.5014L103.873 67.3486C103.186 66.3351 102.751 65.7878 102.406 64.5947Z" fill="#DDC9B4"/>
<path d="M493.22 131.303C494.483 131.211 497.259 130.934 498.332 131.267L498.373 131.623L497.899 132.009C496.327 131.859 494.766 131.624 493.22 131.303Z" fill="#DDC9B4"/>
<path d="M482.406 128.951L482.913 129.226L482.903 129.611C482.267 130.183 481.696 130.64 481.022 131.166L480.796 131.406L480.665 130.849C481.079 129.769 481.46 129.587 482.406 128.951Z" fill="#DDC9B4"/>
<path d="M0 59.9736L1.25567 60.6546C1.43701 61.2364 1.4969 61.9069 1.96402 62.0514C3.91643 62.6552 7.03831 62.2641 9.15316 62.3333L9.07518 62.3528C7.06632 62.8412 2.62444 62.0733 1.63578 62.9878L1.70502 63.6042C3.90033 64.0278 7.60016 64.1253 9.85117 64.1268C10.5303 64.5646 10.7611 64.4082 11.6865 64.4046C9.76128 65.8415 1.40338 62.2121 4.21137 67.0481C4.29591 67.1937 4.72818 67.2986 4.93189 67.3706C3.90167 67.5869 2.79562 67.7965 1.78534 68.0712C1.62665 70.3164 1.46339 72.6233 1.53848 74.8744L1.54943 103.29C1.54986 107.639 1.74133 113.391 1.52887 117.539C1.72089 119.546 2.02442 125.187 3.48514 126.553C3.28447 127.311 2.9514 128.217 3.14099 128.952C3.83251 129.787 4.14955 129.608 4.78344 130.161C4.13555 130.199 3.22815 130.151 2.55708 130.134L1.84986 130.336C1.63219 130.85 1.40594 131.628 1.81484 132.129C1.59451 132.586 1.36046 133.023 1.22106 133.509L0 134.106V59.9736Z" fill="#E7D8CF"/>
<path d="M1.25567 60.6553C1.43701 61.237 1.4969 61.9075 1.96402 62.052C3.91643 62.6559 7.03831 62.2647 9.15316 62.3339L9.07518 62.3534C7.06632 62.8418 2.62444 62.0739 1.63579 62.9884L1.70503 63.6049C3.90033 64.0285 7.60016 64.1259 9.85117 64.1275C10.5303 64.5652 10.7611 64.4088 11.6865 64.4052C9.76128 65.8421 1.40338 62.2128 4.21137 67.0488C4.29591 67.1943 4.72818 67.2993 4.93189 67.3713C3.90167 67.5876 2.79563 67.7972 1.78535 68.0718C1.62665 70.317 1.46339 72.6239 1.53848 74.875L1.54943 103.291C1.54986 107.64 1.74133 113.392 1.52887 117.539L1.294 117.77L1.1478 117.591C1.32299 104.641 0.971356 91.4274 1.15394 78.4372C1.24625 71.8694 0.54256 67.533 1.25567 60.6553Z" fill="#DDC9B4"/>
<path d="M1.22106 133.509C1.18094 132.283 0.715792 126.855 1.48141 126.218C2.13643 126.491 1.94175 126.402 2.39336 127.049C2.34805 128.038 2.6115 129.848 2.55709 130.134L1.84986 130.335C1.63219 130.85 1.40594 131.628 1.81485 132.129C1.59451 132.586 1.36047 133.022 1.22106 133.509Z" fill="#C3A483"/>
</svg>

<svg xmlns="http://www.w3.org/2000/svg" width="527" height="197" fill="none" viewBox="0 0 527 197"><path fill="#fcf8f2" d="m0 59.97 1.26.68c.18.59.24 1.26.7 1.4 1.96.6 5.08.21 7.2.28l289.7.9 88.82-.22 27.6-.27c3.36 0 9.29-.17 12.41.12 11.4.18 22.23.53 33.7.25q10.7-.3 21.39-.46c4.9-.1 11.29-.36 16.15.02 5.7-.1 13.01.01 18.67.4-9.94 4.13-19.9 8.3-29.62 12.9l-1.26.58c-2.94 1.88-7.25 3.62-10.44 5.28-7.11 3.7-13.89 7.8-20.61 12.16-1.83 1.18-5.89 3.68-7.3 5.03 7.17 5.64 24.45 14.27 33.07 18.05 6.38 2.79 12.24 5.68 18.84 8.37 4.43 1.8 13.63 5.23 17.4 7.28-2.95.2-6.07.3-9.04.32-9.68.07-19.48.72-29.14.63-3.16.27-9.74.1-13.12.12l-30.72.02-99.82.01q-26.88.33-53.76.14c-23.57-.21-47-.83-70.6-.78q-104.85 1.03-209.67-1.05c-.22.46-.45.9-.59 1.38l-1.22.6z"/><path fill="#e5d0b0" d="m9.15 62.33 289.72.9 88.81-.22 27.6-.27c3.36 0 9.29-.17 12.41.12 11.4.18 22.23.54 33.7.25q10.7-.3 21.39-.46c4.9-.1 11.29-.36 16.15.02 5.7-.1 13.01.01 18.67.4a669 669 0 0 0-29.62 12.9q-.63.31-1.26.58c-2.94 1.88-7.25 3.62-10.44 5.28-7.11 3.7-13.89 7.8-20.61 12.16-1.83 1.18-5.89 3.68-7.29 5.04 7.16 5.63 24.45 14.26 33.06 18.04 6.38 2.8 12.24 5.68 18.84 8.37 4.43 1.8 13.63 5.23 17.4 7.28-2.95.21-6.07.3-9.04.32-9.68.08-19.48.72-29.14.63-3.16.27-9.74.1-13.12.12l-30.72.02-99.82.01q-26.88.33-53.76.14c-23.57-.21-47-.82-70.6-.77Q106.63 134.2 1.8 132.13c-.4-.5-.18-1.28.04-1.8l.7-.2c.68.02 1.59.07 2.23.03-.63-.55-.95-.37-1.64-1.2-.19-.74.14-1.65.35-2.4.96-.19 9.9.1 11.24.14l25.26.55q34.92.57 69.86.78l234.5.52 72.1.16c23.8.1 47.81.69 71.6-.34q1.96-.1 3.96-.16c-9.98-5.17-21.31-9.44-31.36-14.83-8.32-4.45-15.23-8.94-22.95-14.22 11.26-7.66 20.43-13.82 32.6-20.5 7.73-4.23 15.03-7.09 22.55-10.95-4.93.17-10.59-.18-15.65-.2l-31 .03-72.96.17-232.83.2-95.85-.1-25.65.04c-5.32 0-10.5-.24-15.83.16-.62 2.31-.7 4.44-1.54 6.87-.08-2.26.09-4.56.25-6.8 1-.28 2.11-.5 3.14-.7-.2-.08-.63-.19-.72-.33-2.8-4.84 5.55-1.2 7.48-2.64-.93 0-1.16.16-1.84-.28-2.25 0-5.95-.1-8.14-.52l-.07-.62c.98-.92 5.43-.15 7.44-.64z"/><path fill="#fcf8f2" d="M2.56 130.14c.67.01 1.58.06 2.22.02 7.78.4 16.22.19 24.04.3l40.77.64 143.79.1 233.69.89 28.75-.11c1.63-.01 11.37-.49 12.03.11l-.16.68c-1.9.9-6.76 0-8.19.9-3.16.27-9.74.1-13.12.12l-30.72.02-99.82.01q-26.88.33-53.76.14c-23.57-.21-47-.82-70.6-.78q-104.85 1.03-209.67-1.05c-.4-.5-.18-1.28.04-1.8zm6.59-67.81 289.72.9 88.81-.22 27.6-.27c3.36 0 9.29-.17 12.41.12 1.51.37 2.15.41 3.71.5l-.18-.05.4.2c-1.56.06-3.68-.11-4.95.34l-173.2.72h-54.7l-17.02-.06c-2.54-.02-6.58-.18-9 .01l-1.71-.02c-5.48-.56-12.4-.08-17.96-.03-23.33.19-46.9-.6-70.21-.19-8.3-.03-17.15-.16-25.4.06-1.55-.17-5.6-.07-7.3-.07l-14.13.02-16.15-.08c-3.4-.05-6.64-.23-10.04-.08-2.25 0-5.95-.1-8.14-.52l-.07-.62c.98-.92 5.43-.15 7.44-.64zm434.82 36.7c3.06-2.6 7.46-5.05 10.9-7.22 8.7-5.46 17.53-10.64 26.8-15.08 1.37-.65 6.44-3.6 7.49-3 .03 1.4-1.8 1.4-2.44 2.82-2.94 1.88-7.25 3.62-10.44 5.28-7.11 3.7-13.89 7.8-20.61 12.16-1.83 1.18-5.89 3.68-7.3 5.04 7.17 5.63 24.46 14.26 33.07 18.04-.09.4-.15.42-.48.71-4.21.92-31.92-15.5-37-18.75"/><path fill="#e7d8cf" d="M427.69 62.86c11.4.18 22.23.54 33.7.25q10.7-.3 21.39-.46c4.9-.1 11.29-.36 16.15.02-3.71.14-10.15.23-13.57.67l.62.08c-4.96.42-8.95-.06-13.73.02l-33.96.46c-2.97.02-9.06.76-11.62-.05 1.27-.45 3.4-.28 4.95-.35l-.4-.2.18.06a17 17 0 0 1-3.71-.5M57.46 64.34c8.26-.22 17.11-.1 25.41-.06-2.22.9-22.94.81-25.4.06"/><path fill="#ddc9b4" d="m171.04 64.5 1.71.02.56.95c-.4 1.33-2.08 1.49-3.15.65-.04-.88.14-.78.88-1.62m319.37-.59c2.52-.1 13.14-.07 15.16.71l-.03.43-.95.78.17-.87c-.38-.17-12.8-.59-14.55-.8zm-388.01.69 1.39.04.17.23c-.2 1.1-.07 1.33.4 2.38l-.08.25-.4-.15c-.7-1.01-1.13-1.56-1.47-2.76m390.81 66.71c1.26-.09 4.04-.37 5.11-.03l.04.35-.47.39a43 43 0 0 1-4.68-.7m-10.82-2.36.51.28v.38c-.64.57-1.21 1.03-1.89 1.56l-.22.24-.13-.56c.4-1.08.79-1.26 1.74-1.9"/><path fill="#e7d8cf" d="m0 59.97 1.26.68c.18.59.24 1.26.7 1.4 1.96.6 5.08.21 7.2.28l-.08.02c-2.01.5-6.46-.28-7.44.64l.07.61c2.19.43 5.89.53 8.14.53.68.43.91.28 1.84.27-1.93 1.44-10.29-2.19-7.48 2.65.09.14.52.25.72.32-1.03.22-2.13.43-3.14.7-.16 2.25-.33 4.55-.25 6.8v28.42c.01 4.35.2 10.1-.01 14.25.2 2 .5 7.65 1.96 9.01-.2.76-.54 1.67-.35 2.4.7.84 1.01.66 1.64 1.21-.64.04-1.55 0-2.22-.03l-.71.2c-.22.52-.44 1.3-.04 1.8-.22.46-.45.9-.59 1.38l-1.22.6z"/><path fill="#ddc9b4" d="M1.26 60.66c.18.58.24 1.25.7 1.4 1.96.6 5.08.2 7.2.27l-.08.02c-2.01.5-6.46-.28-7.44.64l.07.61c2.19.43 5.89.53 8.14.53.68.44.91.28 1.84.28-1.93 1.43-10.29-2.2-7.48 2.64.09.14.52.25.72.32-1.03.22-2.13.43-3.14.7-.16 2.25-.33 4.55-.25 6.8v28.42c.01 4.35.2 10.1-.01 14.25l-.24.23-.14-.18c.17-12.95-.18-26.16 0-39.15.1-6.57-.6-10.9.1-17.78"/><path fill="#c3a483" d="M1.22 133.5c-.04-1.22-.5-6.64.26-7.28.66.27.46.18.91.83-.04.99.22 2.8.17 3.08l-.71.2c-.22.52-.44 1.3-.04 1.8-.22.46-.45.9-.59 1.38"/></svg>
